icons/arrow-refresh-5-filled.svg

<svg viewBox="0 0 24 24"><path fill="currentColor" fill-rule="evenodd" d="M18 2.4a3.6 3.6 0 0 1 3.6 3.6v12a3.6 3.6 0 0 1-3.6 3.6h-12a3.6 3.6 0 0 1-3.6-3.6v-12a3.6 3.6 0 0 1 3.6-3.6zm-4.1 2.5a1 1 0 0 0-1.8-.7l-1.5 1.5a1 1 0 0 0 0 1.4l1.5 1.5a1 1 0 0 0 1.8-.7v-.2a4.7 4.7 0 0 1 1.4 7.8 1 1 0 0 0 1.4 1.5 6.7 6.7 0 0 0-2.8-11.4zm-4.9 3.8a1 1 0 1 0-1.4-1.5 6.7 6.7 0 0 0 2.8 11.3v.7a1 1 0 0 0 1.7.7l1.5-1.5a1 1 0 0 0 0-1.4l-1.5-1.5a1 1 0 0 0-1.7.7v.2a4.6 4.6 0 0 1-1.4-7.7Z" clip-rule="evenodd"/></svg>

<svg viewBox="0 0 24 24"><path fill="currentColor" fill-rule="evenodd" d="M18 2.4A3.6 3.6 0 0 1 21.6 6v12a3.6 3.6 0 0 1-3.6 3.6H6A3.6 3.6 0 0 1 2.4 18V6A3.6 3.6 0 0 1 6 2.4zm-4.1 2.5a1 1 0 0 0-1.8-.7l-1.5 1.5a1 1 0 0 0 0 1.4l1.5 1.5A1 1 0 0 0 14 8v-.2a4.7 4.7 0 0 1 1.4 7.8 1 1 0 0 0 1.4 1.5A6.7 6.7 0 0 0 14 5.7zM9 8.7a1 1 0 1 0-1.4-1.5 6.7 6.7 0 0 0 2.8 11.3v.7a1 1 0 0 0 1.7.7l1.5-1.5a1 1 0 0 0 0-1.4L12 15.5a1 1 0 0 0-1.7.7v.2A4.6 4.6 0 0 1 9 8.7" clip-rule="evenodd"/></svg>
